X: 1850
T: Sally Sloane's Polka
B: australian traditional tunes wiki
M:2/4
L:1/8
R: Polka
Q: 1/4=100
K:D
V:1 
A/2G/2|"D"FA d2|ed "G"B>A|"D"BA GF|"A"E3 A/2G/2|
"D"FA dA/2d/2|ed "G"B>A|"D"BA "A"G>E|"D"D3:|
|:A/2A/2|"A"AG GB/2B/2|"D"BA A>F|"A"AG E>G|"D"F2-FA/2A/2|
"A"AG GB/2B/2|"D"BA A>F|"A"A/2d/2c/2B/2 A/2G/2F/2E/2|"D"D3:|
% abcbook-tune_id 6342d53ae0a9d05faabca670


% abcbook-boost 0
% abcbook-tablature 
% abcbook-transpose 
% abcbook-lastupdated 1665324388106
% abcbook-soundfonts 
% abcbook-repeats 1
% NFF Book 2018

